X: 1
T: Back of the Change House
O: as played by Natalie MacMaster
B: Robert Bremner's 1757 collection
B: Athole Collection
S: Page from Concord Slow Scottish Session collection
O: as played by Natalie MacMaster on "A Compilation", track 2
M: 4/4
L: 1/8
K: D
B |\
"D"A>F A<f  "G"e>d B>d | "D"A>F A<B "G"d>e d<B |\
"D"A>F A<f "Em"e>d B>g | "A"f<a A<B "D"d2 d :|
|: g |\
"D"f>e d<f "G"e>d B>g | "D"f>e f<g "A"a>b a<g |\
"D"f>e d<f "G"e>d B>g | "D"f<a "A7"A<B "D"d2 d :|

%%sep 1 1 500

